X:230
T:A la Duché de Normandie (Chanson 3)
C:Manuscript de Bayeux (fin XVe)
R:Chanson
M:4/4
L:1/8
Q:1/4=120
K:C 
V:1
G4 A2 AA | G2 B2 c3c | BA/2G/2 A2 G4 | c4 c2 cd | 
e2 f2 e3d | cB/2A/2 B2 A4 | A3/2B<cB/2 d4 | d2 dd2<c2c | 
BA/2G/2 A2 G4 | E2 F2 G4 | A2 AA G2 B2 | c2 c2 G2 A2 |
G8 | c4 c2 cd | e2 f2 e3d | cB/2A/2 B2 A4 | 
A3/2B<cB/2 d4 | d2 dd2<c2c | BA/2G/2 A2 G4 | G2 BB2<A2B | 
^F2 G2 A4 | A3/2B<cB/2 d4 | d2 dd2<c2c | BA/2G/2 A2 G4- | G8 |]
V:2 clef=perc stafflines=1 staffscale=0.8
B2 BB B2 BB | B2 BB B2 BB | B2 BB B2 BB | B2 BB B2 BB | 
B2 BB B2 BB | B2 BB B2 BB | B2 BB B2 BB | B2 BB B2 BB | 
B2 BB B2 BB | B2 BB B2 BB | B2 BB B2 BB | B2 BB B2 BB | 
B2 BB B2 BB | B2 BB B2 BB | B2 BB B2 BB | B2 BB B2 BB | 
B2 BB B2 BB | B2 BB B2 BB | B2 BB B2 BB | B2 BB B2 BB | 
B2 BB B2 BB | B2 BB B2 BB | B2 BB B2 BB | B2 BB B2 BB | B8 |]





